groups/nitrogen/nitrite.svg

<svg height="256" viewBox="0 0 256 256" width="256" xmlns="http://www.w3.org/2000/svg"><path d="m0 0h256v256h-256z" fill="#fff"/><g fill="none" stroke-width="2"><path d="m223 136.3-51.3-29.6" stroke="#000"/><path d="m142.7 106.8-36.7 21.2" stroke="#000"/><path d="m79.8 123.1-36.8-21.2" stroke="#000"/><path d="m74.1 133-36.8-21.2" stroke="#000"/><path d="m241.964 103.411c-2.468-1.422-4.364 1.868-1.897 3.291 2.468 1.422.572 4.713-1.896 3.29-2.468-1.422-4.364 1.868-1.897 3.29 2.468 1.423.572 4.713-1.896 3.291-2.468-1.423-4.365 1.868-1.897 3.29s.571 4.713-1.896 3.29c-2.468-1.422-4.365 1.868-1.897 3.291 2.468 1.422.571 4.712-1.896 3.29-2.468-1.423-4.365 1.868-1.897 3.29 2.468 1.423.571 4.713-1.897 3.291-2.467-1.423-4.364 1.867-1.896 3.29 2.468 1.422.571 4.713-1.897 3.29-2.467-1.422-4.364 1.868-1.896 3.29 2.468 1.423.571 4.713-1.897 3.291-2.468-1.423-4.364 1.868-1.896 3.29 2.467 1.423.571 4.713-1.897 3.29-2.468-1.422-4.364 1.868-1.896 3.291 2.467 1.422.571 4.712-1.897 3.29s-4.364 1.868-1.897 3.29c2.468 1.423.572 4.713-1.896 3.291" stroke="#7f7f7f"/></g><text font-family="sans-serif" font-size="40" x="145.2" y="118.4">O</text><text font-family="sans-serif" font-size="40" x="79.4" y="156.4">N</text><text font-family="sans-serif" font-size="40" x="13.6" y="118.5">O</text></svg>

<?xml version='1.0' encoding='iso-8859-1'?>
<svg version='1.1' baseProfile='full'
              xmlns='http://www.w3.org/2000/svg'
                      xmlns:rdkit='http://www.rdkit.org/xml'
                      xmlns:xlink='http://www.w3.org/1999/xlink'
                  xml:space='preserve'
width='256px' height='256px' viewBox='0 0 256 256'>
<!-- END OF HEADER -->
<rect style='opacity:1.0;fill:#FFFFFF;stroke:none' width='256.0' height='256.0' x='0.0' y='0.0'> </rect>
<path class='bond-0 atom-0 atom-1' d='M 223.0,136.3 L 171.7,106.7' style='fill:none;fill-rule:evenodd;stroke:#000000;stroke-width:2.0px;stroke-linecap:butt;stroke-linejoin:miter;stroke-opacity:1' />
<path class='bond-1 atom-1 atom-2' d='M 142.7,106.8 L 106.0,128.0' style='fill:none;fill-rule:evenodd;stroke:#000000;stroke-width:2.0px;stroke-linecap:butt;stroke-linejoin:miter;stroke-opacity:1' />
<path class='bond-2 atom-2 atom-3' d='M 79.8,123.1 L 43.0,101.9' style='fill:none;fill-rule:evenodd;stroke:#000000;stroke-width:2.0px;stroke-linecap:butt;stroke-linejoin:miter;stroke-opacity:1' />
<path class='bond-2 atom-2 atom-3' d='M 74.1,133.0 L 37.3,111.8' style='fill:none;fill-rule:evenodd;stroke:#000000;stroke-width:2.0px;stroke-linecap:butt;stroke-linejoin:miter;stroke-opacity:1' />
<path class='atom-1' d='M241.964,103.411 C239.496,101.989 237.6,105.279 240.067,106.702 C242.535,108.124 240.639,111.415 238.171,109.992 C235.703,108.57 233.807,111.86 236.274,113.282 C238.742,114.705 236.846,117.995 234.378,116.573 C231.91,115.15 230.013,118.441 232.481,119.863 C234.949,121.285 233.052,124.576 230.585,123.153 C228.117,121.731 226.22,125.021 228.688,126.444 C231.156,127.866 229.259,131.156 226.792,129.734 C224.324,128.311 222.427,131.602 224.895,133.024 C227.363,134.447 225.466,137.737 222.998,136.315 C220.531,134.892 218.634,138.182 221.102,139.605 C223.57,141.027 221.673,144.318 219.205,142.895 C216.738,141.473 214.841,144.763 217.309,146.185 C219.777,147.608 217.88,150.898 215.412,149.476 C212.944,148.053 211.048,151.344 213.516,152.766 C215.983,154.189 214.087,157.479 211.619,156.056 C209.151,154.634 207.255,157.924 209.723,159.347 C212.19,160.769 210.294,164.059 207.826,162.637 C205.358,161.215 203.462,164.505 205.929,165.927 C208.397,167.35 206.501,170.64 204.033,169.218' style='fill:none;stroke:#7F7F7F;stroke-width:2.0px;stroke-linecap:butt;stroke-linejoin:miter;stroke-opacity:1' />
<text x='145.2' y='118.4' class='atom-1' style='font-size:40px;font-style:normal;font-weight:normal;fill-opacity:1;stroke:none;font-family:sans-serif;text-anchor:start;fill:#000000' >O</text>
<text x='79.4' y='156.4' class='atom-2' style='font-size:40px;font-style:normal;font-weight:normal;fill-opacity:1;stroke:none;font-family:sans-serif;text-anchor:start;fill:#000000' >N</text>
<text x='13.6' y='118.5' class='atom-3' style='font-size:40px;font-style:normal;font-weight:normal;fill-opacity:1;stroke:none;font-family:sans-serif;text-anchor:start;fill:#000000' >O</text>
</svg>
